X:1
T:MelodyTimothy
L:1/64
%            End of header, start of tune body:
V:0
%%MIDI program 0
K:C
M:4/4
Q:120
 G32 G32 | G32 B8 B24-| B8 G16 G16 g16 B8-| B8 B16 B32 G8 | D8 B16 D8 B8 B,16 B,8 | B16 B,8 B8 d16 D8 d8-| d8 D16 d16 D16 d8-|
 d8 d16 D16 d16 D8-| D8 D16 G8 d8 G8 d8 d8-| d8 G8 g8 b8 B16 D16 | d16 G16 g16 G16 | D16 d16 D16 D16 | d16 D8 D16 G16 g8-|
 g8 B16 B16 B16 B8-| B8 B16 B16 B16 B8-| B8 g16 G16 G16 G8-| G8 G16 G16 G16 G8-| G8 D16 B,8 B16 d16 | D16 B,8 B16 g16 G8-|
 G8 G16 G16 G16 d8 | g16 g8 G8 g16 g16 | B8 D8 G16 B8 G16 g8 | G8 B16 B16 b16 B8-| B8 b16 B8 b8 B8 b8 b8 | g'8 g8 g16 g8 g'16 b8 |
 g'8 b'16 d'16 g8 g8 g'8 | b8 b8 B8 d16 B8 B16 | B8 D8 d16 D8 D8 d16 | b16 B8 B16 g16 d'8-| d'8 d32 G16 B8-| B8 B16 B16 B16 g8-|
 g8 B16 G8 D32 | B32 B16 B16 | B16 B16 B16 B16 | B16 B16 B16 d16 | d16 d16 D16 B16 | B16 d16 d16 d16 |
 d16 d16 d16 d16 | G32 G32 | G32 B8 B24-| B8 G16 G16 g16 B8-| B8 B16 B32 G8 | D8 B16 D8 B8 B,16 B,8 |
 B16 B,8 B8 d16 D8 d8-| d8 D16 d16 D16 d8-| d8 d16 D16 d16 D8-| D8 D16 G8 d8 G8 d8 d8-| d8 G8 g8 b8 B16 D16 | d16 G16 g16 G16 |
 D16 d16 D16 D16 | d16 D8 D16 G16 g8-| g8 B16 B16 B16 B8-| B8 B16 B16 B16 B8-| B8 g16 G16 G16 G8-| G8 G16 G16 G16 G8-|
 G8 D16 B,8 B16 d16 | D16 B,8 B16 g16 G8-| G8 G16 G16 G16 d8 | g16 g8 G8 g16 g16 | B8 D8 G16 B8 G16 g8 | G8 B16 B16 b16 B8-|
 B8 b16 B8 b8 B8 b8 b8 | g'8 g8 g16 g8 g'16 b8 | g'8 b'16 d'16 g8 g8 g'8 | b8 b8 B8 d16 B8 B16 | B8 D8 d16 D8 D8 d16 | b16 B8 B16 g16 d'8-|
 d'8 d32 G16 B8-| B8 B16 B16 B16 g8-| g8 B16 G8 D32 | B32 B16 B16 | B16 B16 B16 B16 | B16 B16 B16 d16 |
 d16 d16 D16 B16 | B16 d16 d16 d16 | d16 d16 d16 d16 | G32 G32 | G32 B8 B24-| B8 G16 G16 g16 B8-|
 B8 B16 B32 G8 | D8 B16 D8 B8 B,16 B,8 | B16 B,8 B8 d16 D8 d8-| d8 D16 d16 D16 d8-| d8 d16 D16 d16 D8-| D8 D16 G8 d8 G8 d8 d8-|
 d8 G8 g8 b8 B16 D16 | d16 G16 g16 G16 | D16 d16 D16 D16 | d16 D8 D16 G16 g8-| g8 B16 B16 B16 B8-| B8 B16 B16 B16 B8-|
 B8 g16 G16 G16 G8-| G8 G16 G16 G16 G8-| G8 D16 B,8 B16 d16 | D16 B,8 B16 g16 G8-| G8 G16 G16 G16 d8 | g16 g8 G8 g16 g16 |
 B8 D8 G16 B8 G16 g8 | G8 B16 B16 b16 B8-| B8 b16 B8 b8 B8 b8 b8 | g'8 g8 g16 g8 g'16 b8 | g'8 b'16 d'16 g8 g8 g'8 | b8 b8 B8 d16 B8 B16 |
 B8 D8 d16 D8 D8 d16 | b16 B8 B16 g16 d'8-| d'8 d32 G16 B8-| B8 B16 B16 B16 g8-| g8 B16 G8 D32 | B32 B16 B16 |
 B16 B16 B16 B16 | B16 B16 B16 d16 | d16 d16 D16 B16 | B16 d16 d16 d16 | d16 d16 d16 d16 | E16 B,32 B,8 E8 |
 E16 E16 E32 | E16 E16 ^G16 G8 G8-| ^G8 G32 G8 E8 G8-| ^G24 G16 ^D16 D8-| ^D8 d8 D16 d16 G8 g8 | ^d16 D8 G16 G16 ^A,8-|
 ^A,8 A32 A,24-| ^A,8 G32 ^D16 A8-| ^A8 d32 A8 A16-| ^A16 a32 A16-| ^A16 d16 d'16 d16 | ^A32 A8 A8 A16 | ^A32 A8 A8 a16 |
 ^A16 d32 A16-| ^A16 A16 A16 A8 A8 | ^A32 F32 | ^A8 A32 A,24-| ^A,8 A8 A16 D32 | d32 D16 d16 |
 ^A16 A,16 A8 d16 D8-| D8 d32 D16 D8-| D8 d32 D24-| D8 d16 D8 F16 d16 | D16 d8 d32 ^A8-| ^A24 A8 a16 A16-|
 ^A16 A8 A16 a24-| ^a8]
V:1
%%MIDI program 0
K:C
M:4/4
Q:120
 z32 z32 | z32 z8 z24| z8 z16 z16 z16 z8| z8 z16 z32 z8 | z8 z16 z8 z8 z16 z8 |
 z16 z8 z8 z16 z8 z8| z8 z16 z16 z16 z8| z8 z16 z16 z16 z8| z8 z16 z8 z8 z8 z8 z8| z8 z8 z8 z8 z16 z16 | z16 z16 z16 z16 |
 z16 z16 z16 z16 | z16 z8 z16 z16 z8| z8 z16 z16 z16 z8| z8 z16 z16 z16 z8| z8 z16 z16 z16 z8| z8 z16 z16 z16 z8|
 z8 z16 z8 z16 z16 | z16 z8 z16 z16 z8| z8 z16 z16 d8 d8 B8 | B8 d8 B8 G8 B16 d8 d8 | d8 G8 B16 B8 d16 G4 G4 | G8 G8 d8 G16 B8 B8 G8-|
 G8 d8 d8 d8 d4 G4 d8 G4 G4 B8 | d4 B4 B8 G8 d8 G8 d8 G8 G8 | G8 B16 d8 B8 d8 d4 B4 G8 | G4 B4 d8 B8 B16 d8 d16 | G4 G4 B8 B8 d8 B8 d8 G16 | d8 G8 B8 d8 G8 G16 d8-|
 d8 G32 d8 G8 B8-| B8 G8 d8 B16 d8 d8 B8-| B8 G8 G8 d8 B16 d16 | B32 d8 G8 G16 | d8 G8 d16 B8 G8 G16 | G8 G8 d16 d8 G8 d16 |
 d8 d8 B16 G8 G8 d16 | G8 G8 G16 B8 G8 d16 | G8 d8 d16 G8 B8 d16 | z32 z32 | z32 z8 z24| z8 z16 z16 z16 z8|
 z8 z16 z32 z8 | z8 z16 z8 z8 z16 z8 | z16 z8 z8 z16 z8 z8| z8 z16 z16 z16 z8| z8 z16 z16 z16 z8| z8 z16 z8 z8 z8 z8 z8|
 z8 z8 z8 z8 z16 z16 | z16 z16 z16 z16 | z16 z16 z16 z16 | z16 z8 z16 z16 z8| z8 z16 z16 z16 z8| z8 z16 z16 z16 z8|
 z8 z16 z16 z16 z8| z8 z16 z16 z16 z8| z8 z16 z8 z16 z16 | z16 z8 z16 z16 z8| z8 z16 z16 B8 d8 B8 | G8 B8 B8 G8 d16 B8 G8 |
 B8 G8 G16 d8 B16 d4 d4 | G8 d8 B8 d16 B8 G8 d8-| d8 G8 d8 G8 d4 B4 d8 G4 d4 d8 | G4 B4 G8 d8 d8 B8 d8 d8 B8 | G8 G16 G8 G8 B8 B4 G4 d8 | B4 G4 d8 d8 B16 d8 B16 |
 G4 B4 d8 G8 G8 d8 B8 d16 | d8 d8 G8 d8 d8 B16 B8-| B8 G32 d8 B8 G8-| G8 d8 B8 d16 G8 B8 G8-| G8 G8 B8 G8 B16 d16 | d32 G8 G8 G16 |
 G8 d8 d16 d8 d8 d16 | B8 B8 G16 G8 B8 B16 | d8 d8 B16 d8 d8 d16 | G8 B8 B16 G8 d8 G16 | d8 G8 G16 d8 B8 d16 | z32 z32 |
 z32 z8 z24| z8 z16 z16 z16 z8| z8 z16 z32 z8 | z8 z16 z8 z8 z16 z8 | z16 z8 z8 z16 z8 z8| z8 z16 z16 z16 z8|
 z8 z16 z16 z16 z8| z8 z16 z8 z8 z8 z8 z8| z8 z8 z8 z8 z16 z16 | z16 z16 z16 z16 | z16 z16 z16 z16 | z16 z8 z16 z16 z8|
 z8 z16 z16 z16 z8| z8 z16 z16 z16 z8| z8 z16 z16 z16 z8| z8 z16 z16 z16 z8| z8 z16 z8 z16 z16 | z16 z8 z16 z16 z8|
 z8 z16 z16 d8 d8 B8 | G8 G8 G8 G8 d16 G8 B8 | d8 G8 B16 d8 d16 d4 d4 | G8 B8 d8 G16 G8 G8 G8-| G8 B8 B8 B8 d4 B4 B8 B4 G4 G8 | B4 d4 d8 G8 d8 d8 d8 G8 B8 |
 d8 B16 d8 B8 B8 d4 B4 G8 | B4 G4 d8 B8 B16 B8 B16 | B4 G4 B8 B8 d8 G8 d8 B16 | d8 B8 d8 G8 G8 B16 B8-| B8 d32 d8 d8 B8-| B8 G8 B8 G16 d8 d8 d8-|
 d8 d8 G8 B8 B16 G16 | B32 B8 B8 G16 | d8 B8 B16 G8 d8 B16 | d8 d8 d16 G8 G8 G16 | d8 G8 d16 d8 G8 B16 | G8 B8 d16 d8 d8 B16 |
 d8 G8 d16 d8 B8 d16 | z64 | z64 | z16 z48| z16 z48| z16 z24 z24|
 z40 z24| z40 z24| z40 z24| z40 z16 z8| z56 z8| z56 z8|
 z56 z8 | z64 | z64 | z48 z16| z48 z8 z8| z56 z8|
 z8 z56| z8 z56| z8 z56| z8 z56| z8 z56| z8 z56|
 z8 z56| z8 z48 z8| z56 z8| z56 z8| z8]
